X: 1
T: Old Favourite, The
M: 6/8
L: 1/8
R: jig
K: G
B3 BAB|dBA G2B|ded d2 B|ded B3|B3 BAB|dBA G2B|ded cBA|1 G3 G2A:|2 G3 GBd|
|:~g3 ~f3|~e3 edB|ded d2 B|ded B2d|~g3 ~f3|~e3 edB|ded dBA |G3 GBd:|
"variaciones:"
B3 BAB|dBA ~g2B|ded ded|ded B2A|B3 BAB|dBA G2B|ded cBA|1 G3 GAA:|2 G3 GBd|
|:~g3 ~f3|~e3 edB|ded ded|ded B2d|~g3 ~f3|~e3 edB|1dge dBA |G3 GBd:|2 G3 GAA||

